icons/phone-playB.svg

<svg width="24" height="24" viewBox="0 0 24 24" fill="none" xmlns="http://www.w3.org/2000/svg">
<path d="M16.7 16.3V17C16.7 19.2 14.9 21 12.7 21H6.69995C4.49995 21 2.69995 19.2 2.69995 17V7C2.69995 4.8 4.49995 3 6.69995 3H12.7C14.7 3 16.3 4.4 16.6 6.3C16.5 6.3 16.4 6.3 16.3 6.3C14.9 6.3 13.7 6.9 12.8 7.8C11.8 8.6 11.3 9.9 11.3 11.3C11.3 14.1 13.5 16.3 16.3 16.3C16.4 16.3 16.5 16.3 16.7 16.3Z" fill="black"/>
<path fill-rule="evenodd" clip-rule="evenodd" d="M6.69995 3.75C4.91416 3.75 3.44995 5.21421 3.44995 7V17C3.44995 18.7858 4.91416 20.25 6.69995 20.25H12.7C14.4724 20.25 15.9281 18.8075 15.9497 17.0399C12.9034 16.8634 10.55 14.3965 10.55 11.3C10.55 9.74858 11.0999 8.21932 12.2986 7.2409C13.1672 6.38318 14.2967 5.7562 15.6135 5.5923C15.1168 4.49318 14.0217 3.75 12.7 3.75H6.69995ZM1.94995 7C1.94995 4.38579 4.08574 2.25 6.69995 2.25H12.7C15.069 2.25 16.9832 3.91853 17.3408 6.18303L17.4777 7.05H16.3C15.1276 7.05 14.1114 7.54924 13.3303 8.33033L13.3009 8.3597L13.2685 8.38565C12.4899 9.00848 12.05 10.0655 12.05 11.3C12.05 13.6858 13.9142 15.55 16.3 15.55H17.45V17C17.45 19.6142 15.3142 21.75 12.7 21.75H6.69995C4.08574 21.75 1.94995 19.6142 1.94995 17V7Z" fill="black"/>
<path fill-rule="evenodd" clip-rule="evenodd" d="M8.44995 17.9C8.44995 17.4858 8.78574 17.15 9.19995 17.15H10.2C10.6142 17.15 10.95 17.4858 10.95 17.9C10.95 18.3142 10.6142 18.65 10.2 18.65H9.19995C8.78574 18.65 8.44995 18.3142 8.44995 17.9Z" fill="white"/>
<path fill-rule="evenodd" clip-rule="evenodd" d="M12.2987 7.24095C13.3148 6.23764 14.6877 5.55005 16.3 5.55005H16.6C18.0342 5.55005 19.4168 6.25609 20.3304 7.16972C21.3778 8.2171 22.05 9.91085 22.05 11.4C22.05 12.9198 21.3556 14.4052 20.3304 15.4304C19.3979 16.3628 18.129 16.9336 16.7623 17.0475L16.7312 17.05H16.3C13.0858 17.05 10.55 14.5143 10.55 11.3C10.55 9.74862 11.1 8.21937 12.2987 7.24095ZM16.3 7.05005C15.1277 7.05005 14.1115 7.54929 13.3304 8.33038L13.301 8.35975L13.2686 8.3857C12.49 9.00853 12.05 10.0656 12.05 11.3C12.05 13.6858 13.9143 15.55 16.3 15.55H16.6667C17.6881 15.4582 18.6086 15.0308 19.2697 14.3697C20.0445 13.5949 20.55 12.4803 20.55 11.4C20.55 10.2892 20.0223 8.983 19.2697 8.23038C18.5833 7.54401 17.5659 7.05005 16.6 7.05005H16.3ZM17.5675 11.3393L16.2198 10.5465L16.9803 9.2536L18.6985 10.2643L18.7161 10.276C19.1144 10.5416 19.275 10.9761 19.275 11.35C19.275 11.724 19.1144 12.1585 18.7161 12.4241L18.6845 12.4451L16.951 13.3629L16.2491 12.0372L17.5675 11.3393Z" fill="black"/>
<path fill-rule="evenodd" clip-rule="evenodd" d="M15.95 10.4157V12.2077L16.2278 12.0489C16.5875 11.8434 17.0456 11.9683 17.2511 12.328C17.4566 12.6876 17.3317 13.1457 16.9721 13.3512L16.2899 13.741C15.4812 14.2532 14.45 13.6717 14.45 12.7001V9.90006C14.45 8.92238 15.494 8.33972 16.3049 8.86871L17.0975 9.36406C17.4487 9.58359 17.5555 10.0463 17.3359 10.3976C17.1164 10.7488 16.6537 10.8556 16.3025 10.6361L15.95 10.4157Z" fill="black"/>
</svg>

<svg xmlns="http://www.w3.org/2000/svg" fill="none" viewBox="0 0 24 24">
  <path fill="#000" d="M16.7 16.3v.7c0 2.2-1.8 4-4 4h-6c-2.2 0-4-1.8-4-4V7c0-2.2 1.8-4 4-4h6c2 0 3.6 1.4 3.9 3.3h-.3c-1.4 0-2.6.6-3.5 1.5-1 .8-1.5 2.1-1.5 3.5 0 2.8 2.2 5 5 5h.4Z"/>
  <path fill="#000" fill-rule="evenodd" d="M6.7 3.75A3.262 3.262 0 0 0 3.45 7v10a3.262 3.262 0 0 0 3.25 3.25h6a3.262 3.262 0 0 0 3.25-3.21c-3.047-.177-5.4-2.643-5.4-5.74 0-1.551.55-3.08 1.749-4.06.868-.857 1.998-1.484 3.315-1.648-.497-1.099-1.592-1.842-2.914-1.842h-6ZM1.95 7A4.762 4.762 0 0 1 6.7 2.25h6c2.369 0 4.283 1.669 4.64 3.933l.138.867H16.3c-1.172 0-2.189.5-2.97 1.28l-.03.03-.032.026c-.778.622-1.218 1.68-1.218 2.914 0 2.386 1.864 4.25 4.25 4.25h1.15V17a4.762 4.762 0 0 1-4.75 4.75h-6A4.762 4.762 0 0 1 1.95 17V7Z" clip-rule="evenodd"/>
  <path fill="#fff" fill-rule="evenodd" d="M8.45 17.9a.75.75 0 0 1 .75-.75h1a.75.75 0 0 1 0 1.5h-1a.75.75 0 0 1-.75-.75Z" clip-rule="evenodd"/>
  <path fill="#000" fill-rule="evenodd" d="M12.299 7.24c1.016-1.002 2.389-1.69 4.001-1.69h.3c1.434 0 2.817.706 3.73 1.62 1.048 1.047 1.72 2.74 1.72 4.23 0 1.52-.694 3.005-1.72 4.03-.932.933-2.201 1.504-3.568 1.617l-.03.003H16.3c-3.214 0-5.75-2.536-5.75-5.75 0-1.551.55-3.08 1.749-4.06Zm4.001-.19c-1.172 0-2.189.5-2.97 1.28l-.029.03-.032.026c-.779.623-1.219 1.68-1.219 2.914 0 2.386 1.864 4.25 4.25 4.25h.367c1.021-.092 1.942-.52 2.603-1.18.774-.775 1.28-1.89 1.28-2.97 0-1.11-.528-2.417-1.28-3.17-.687-.686-1.704-1.18-2.67-1.18h-.3Zm1.267 4.29-1.347-.793.76-1.293 1.718 1.01.018.012c.398.266.559.7.559 1.074 0 .374-.16.809-.559 1.074l-.032.021-1.733.918-.702-1.326 1.319-.698Z" clip-rule="evenodd"/>
  <path fill="#000" fill-rule="evenodd" d="M15.95 10.416v1.792l.278-.16a.75.75 0 0 1 .744 1.303l-.682.39c-.809.512-1.84-.07-1.84-1.04V9.9c0-.979 1.044-1.561 1.855-1.032l.793.495a.75.75 0 0 1-.796 1.272l-.352-.22Z" clip-rule="evenodd"/>
</svg>
